X:10
T:Maid Behind The Bar, The
M:4/4
L:1/8
R:reel
Z:Jaya R. Carl, March 10, 2004
K:Dmaj
DE|:"D"FAAB AFED|FAAB A2de|"Bm"fBBA Bcde|"G"f2gf "A"edBA|
"D"FAAB AFED|FAAB A2de|"Bm"fBBA "G"BcdB|"A"AFEF "D"D2:|
|:z1e|"D"fgag fdde|fdad fd df|"Em"efga beef|"G"(3gfe be "A"geea|
"D"fgaf "G"b2af|"D"defd "A"e2 de|"Bm"f2BA "G"BcdB|"G"AF"A"EF "D"D3:|
